X:1
T:The Merchant's Son
M:2/4
L:1/8
K:C
 G| CE G2| A2 DE| C3 c| AF A2|B-c de| G3 G| e3/2 d/2 c2| C2 EG| c3 c/2B/2|\
 AG A2| c2 GA| E3 D| C3/2 D/2 EF| G2 A3/2 C/2| D3/2 E/2 C2-| C3||
